svg/u1f626.svg

<svg viewBox="0 0 128 128" xmlns="http://www.w3.org/2000/svg">
  <g id="gold">
    <radialGradient id="face_1_" cx="63.6" cy="1696.9" gradientTransform="matrix(1 0 0 1 0 -1634)" gradientUnits="userSpaceOnUse" r="56.9597">
      <stop offset="0.5" stop-color="#FDE030"/>
      <stop offset="0.92" stop-color="#F7C02B"/>
      <stop offset="1" stop-color="#F4A223"/>
    </radialGradient>
    <path id="face" d="M63.6,118.8c-27.9,0-58-17.5-58-55.9S35.7,7,63.6,7c15.5,0,29.8,5.1,40.4,14.4 c11.5,10.2,17.6,24.6,17.6,41.5s-6.1,31.2-17.6,41.4C93.4,113.6,79,118.8,63.6,118.8z" fill="url(#face_1_)"/>
    <path d="M111.49,29.67c5.33,8.6,8.11,18.84,8.11,30.23c0,16.9-6.1,31.2-17.6,41.4 c-10.6,9.3-25,14.5-40.4,14.5c-18.06,0-37-7.35-48.18-22.94c10.76,17.66,31,25.94,50.18,25.94c15.4,0,29.8-5.2,40.4-14.5 c11.5-10.2,17.6-24.5,17.6-41.4C121.6,50.16,118.13,38.84,111.49,29.67z" fill="#EB8F00"/>
  </g>
  <g id="facial_expressions">
    <g id="frowning-open-mouth-face">
      <path id="mouth" d="M64,99.9c3.85,0,7.67,0.66,11.3,1.93c7.7,2.69,14.37-6,9.9-12.8 C80.54,82,73.29,80,64,80s-16.53,1.91-21.19,9c-4.48,6.81,2.2,15.48,9.9,12.8C56.34,100.53,60.16,99.89,64,99.9z" fill="#422B0D"/>
    </g>
    <path d="M44,49.94L44,49.94c-4.19,0-8,3.54-8,9.42s3.81,9.41,8,9.41l0,0c4.2,0,8-3.54,8-9.41 S48.24,49.94,44,49.94z" fill="#422B0D"/>
    <g id="peepers">
      <path d="M43.65,53.87L43.65,53.87c-1.42-0.68-3.13-0.08-3.82,1.34c-0.53,1.11-0.29,2.44,0.6,3.3l0,0 c1.42,0.68,3.13,0.08,3.82-1.34C44.78,56.06,44.54,54.73,43.65,53.87z" fill="#896024"/>
    </g>
    <path d="M82.4,49.94L82.4,49.94c-4.19,0-8,3.54-8,9.42s3.81,9.41,8,9.41l0,0c4.19,0,8-3.54,8-9.41 S86.59,49.94,82.4,49.94z" fill="#422B0D"/>
    <g id="peepers-2">
      <path d="M82,53.87L82,53.87c-1.42-0.68-3.13-0.08-3.82,1.34c-0.53,1.11-0.29,2.44,0.6,3.3l0,0 c1.42,0.68,3.13,0.08,3.82-1.34C83.13,56.06,82.89,54.73,82,53.87z" fill="#896024"/>
    </g>
  </g>
</svg>

<svg viewBox="0 0 128 128" xmlns="http://www.w3.org/2000/svg">
  <defs>
    <radialGradient id="face_1_" cx="63.6" cy="62.9" gradientUnits="userSpaceOnUse" r="56.9597">
      <stop offset="0.5" stop-color="#FDE030"/>
      <stop offset="0.92" stop-color="#F7C02B"/>
      <stop offset="1" stop-color="#F4A223"/>
    </radialGradient>
  </defs>
  <path id="face" d="M63.6,118.8 C35.7,118.8 5.6,101.3 5.6,62.9 C5.6,24.5 35.7,7 63.6,7 C79.1,7 93.4,12.1 104,21.4 C115.5,31.6 121.6,46 121.6,62.9 C121.6,79.8 115.5,94.1 104,104.3 C93.4,113.6 79,118.8 63.6,118.8 Z" fill="url(#face_1_)"/>
  <path d="M111.49,29.67 C116.82,38.27 119.6,48.51 119.6,59.9 C119.6,76.8 113.5,91.1 102,101.3 C91.4,110.6 77,115.8 61.6,115.8 C43.54,115.8 24.6,108.45 13.42,92.86 C24.18,110.52 44.42,118.8 63.6,118.8 C79,118.8 93.4,113.6 104,104.3 C115.5,94.1 121.6,79.8 121.6,62.9 C121.6,50.16 118.13,38.84 111.49,29.67 Z" fill="#EB8F00"/>
  <path id="mouth" d="M64,99.9 C67.85,99.9 71.67,100.56 75.3,101.83 C83,104.52 89.67,95.83 85.2,89.03 C80.54,82 73.29,80 64,80 C54.71,80 47.47,81.91 42.81,89 C38.33,95.81 45.01,104.48 52.71,101.8 C56.34,100.53 60.16,99.89 64,99.9 Z" fill="#422B0D"/>
  <path d="M44,49.94 L44,49.94 C39.81,49.94 36,53.48 36,59.36 C36,65.24 39.81,68.77 44,68.77 L44,68.77 C48.2,68.77 52,65.23 52,59.36 C52,53.49 48.24,49.94 44,49.94 Z" fill="#422B0D"/>
  <path d="M43.65,53.87 L43.65,53.87 C42.23,53.19 40.52,53.79 39.83,55.21 C39.3,56.32 39.54,57.65 40.43,58.51 L40.43,58.51 C41.85,59.19 43.56,58.59 44.25,57.17 C44.78,56.06 44.54,54.73 43.65,53.87 Z" fill="#896024"/>
  <path d="M82.4,49.94 L82.4,49.94 C78.21,49.94 74.4,53.48 74.4,59.36 C74.4,65.24 78.21,68.77 82.4,68.77 L82.4,68.77 C86.59,68.77 90.4,65.23 90.4,59.36 C90.4,53.49 86.59,49.94 82.4,49.94 Z" fill="#422B0D"/>
  <path d="M82,53.87 L82,53.87 C80.58,53.19 78.87,53.79 78.18,55.21 C77.65,56.32 77.89,57.65 78.78,58.51 L78.78,58.51 C80.2,59.19 81.91,58.59 82.6,57.17 C83.13,56.06 82.89,54.73 82,53.87 Z" fill="#896024"/>
</svg>
